src/travel-places/place-building/1F492.svg

<svg id="emoji" viewBox="0 0 72 72" xmlns="http://www.w3.org/2000/svg">
  <g id="grid">
    <path fill="#b3b3b3" d="M68,4V68H4V4H68m4-4H0V72H72V0Z"/>
    <path fill="none" stroke="#00a5ff" stroke-miterlimit="10" stroke-width="0.1" d="M12.923,10.9583H59.0769A1.9231,1.9231,0,0,1,61,12.8814V59.0352a1.9231,1.9231,0,0,1-1.9231,1.9231H12.9231A1.9231,1.9231,0,0,1,11,59.0352V12.8813A1.923,1.923,0,0,1,12.923,10.9583Z"/>
    <rect x="16" y="4" rx="2.2537" width="40" height="64" fill="none" stroke="#00a5ff" stroke-miterlimit="10" stroke-width="0.1"/>
    <rect x="16" y="4" rx="2.2537" width="40" height="64" transform="translate(72) rotate(90)" fill="none" stroke="#00a5ff" stroke-miterlimit="10" stroke-width="0.1"/>
    <circle cx="36" cy="36" r="29" fill="none" stroke="#00a5ff" stroke-miterlimit="10" stroke-width="0.1"/>
  </g>
  <g id="color">
    <path fill="#D0CFCE" stroke="none" d="M44,34V19.8402v-0.405l-7.2941-5.2163c-0.4081-0.2919-1.0039-0.2919-1.412,0L28,19.4352v0.405V34"/>
    <path fill="#FFFFFF" stroke="none" stroke-linecap="round" stroke-linejoin="round" stroke-miterlimit="10" stroke-width="2" d="M53,41.4945v24.5087C53,66.5537,52.5994,67,52.1053,67H19.8947C19.4006,67,19,66.5537,19,66.0032V41.4945 c0-0.2897,0.1131-0.565,0.3098-0.7543l16.1053-15.4978c0.3359-0.3232,0.8338-0.3232,1.1698,0l16.1053,15.4978 C52.8869,40.9295,53,41.2048,53,41.4945z"/>
    <path fill="#A57939" stroke="none" stroke-linecap="round" stroke-miterlimit="10" stroke-width="2" d="M41,58.943 c0-3.8509-3.3484-6.1256-4.5649-6.8249c-0.274-0.1575-0.5962-0.1575-0.8702,0C34.3483,52.8174,31,55.0921,31,58.943v7.0894 C31,66.5668,31.4092,67,31.914,67h8.172C40.5908,67,41,66.5668,41,66.0324V58.943z"/>
    <path fill="#EA5A47" stroke="none" stroke-linecap="round" stroke-linejoin="round" stroke-width="2" d="M35.9997,45.8252 l-4.8692-6.2438l-0.1569-0.232c-0.8207-1.3515-0.3904-3.1124,0.9611-3.9331c1.3516-0.8207,3.1125-0.3904,3.9332,0.9611 c0.0479,0.0789,0.092,0.1601,0.1321,0.2433c0.6865-1.4244,2.3978-2.0225,3.8222-1.336c1.4243,0.6866,2.0224,2.3979,1.3359,3.8222 c-0.0761,0.158-0.1666,0.3086-0.2703,0.45L35.9997,45.8252z"/>
  </g>
  <g id="hair"/>
  <g id="skin"/>
  <g id="skin-shadow"/>
  <g id="line">
    <path fill="none" stroke="#000000" stroke-linecap="round" stroke-linejoin="round" stroke-miterlimit="10" stroke-width="2" d="M53,41.4945v24.5087C53,66.5537,52.5994,67,52.1053,67H19.8947C19.4006,67,19,66.5537,19,66.0032V41.4945 c0-0.2897,0.1131-0.565,0.3098-0.7543l16.1053-15.4978c0.3359-0.3232,0.8338-0.3232,1.1698,0l16.1053,15.4978 C52.8869,40.9295,53,41.2048,53,41.4945z"/>
    <path fill="none" stroke="#000000" stroke-linecap="round" stroke-linejoin="round" stroke-miterlimit="10" stroke-width="2" d="M43,27v-8.1598v-0.405l-6.3823-5.2163c-0.3571-0.2919-0.8784-0.2919-1.2355,0L29,18.4352v0.405V27"/>
    <line x1="36" x2="36" y1="13" y2="5" fill="none" stroke="#000000" stroke-linecap="round" stroke-miterlimit="10" stroke-width="2"/>
    <line x1="32.5" x2="39.5" y1="8" y2="8" fill="none" stroke="#000000" stroke-linecap="round" stroke-miterlimit="10" stroke-width="2"/>
    <path fill="none" stroke="#000000" stroke-linecap="round" stroke-miterlimit="10" stroke-width="2" d="M41,58.943 c0-3.8509-3.3484-6.1256-4.5649-6.8249c-0.274-0.1575-0.5962-0.1575-0.8702,0C34.3483,52.8174,31,55.0921,31,58.943v7.0894 C31,66.5668,31.4092,67,31.914,67h8.172C40.5908,67,41,66.5668,41,66.0324V58.943z"/>
    <path fill="none" stroke="#000000" stroke-linecap="round" stroke-linejoin="round" stroke-width="2" d="M35.9997,45.8252 l-4.8692-6.2438l-0.1569-0.232c-0.8207-1.3515-0.3904-3.1124,0.9611-3.9331c1.3516-0.8207,3.1125-0.3904,3.9332,0.9611 c0.0479,0.0789,0.092,0.1601,0.1321,0.2433c0.6865-1.4244,2.3978-2.0225,3.8222-1.336c1.4243,0.6866,2.0224,2.3979,1.3359,3.8222 c-0.0761,0.158-0.1666,0.3086-0.2703,0.45L35.9997,45.8252z"/>
  </g>
</svg>

<svg viewBox="0 0 72 72" xmlns="http://www.w3.org/2000/svg"><path fill="#b3b3b3" d="M68 4v64H4V4h64m4-4H0v72h72V0z"/><path fill="none" stroke="#00a5ff" stroke-miterlimit="10" stroke-width=".1" d="M12.923 10.958h46.154A1.923 1.923 0 0161 12.881v46.154a1.923 1.923 0 01-1.923 1.923H12.923A1.923 1.923 0 0111 59.035V12.881a1.923 1.923 0 011.923-1.923z"/><rect x="16" y="4" rx="2.254" width="40" height="64" fill="none" stroke="#00a5ff" stroke-miterlimit="10" stroke-width=".1"/><rect x="16" y="4" rx="2.254" width="40" height="64" transform="rotate(90 36 36)" fill="none" stroke="#00a5ff" stroke-miterlimit="10" stroke-width=".1"/><circle cx="36" cy="36" r="29" fill="none" stroke="#00a5ff" stroke-miterlimit="10" stroke-width=".1"/><g stroke-linecap="round" stroke-miterlimit="10" stroke-width="6" stroke="#fff" fill="none" stroke-linejoin="round"><path d="M53 41.495v24.508c0 .55-.4.997-.895.997h-32.21c-.494 0-.895-.446-.895-.997V41.495c0-.29.113-.565.31-.755l16.105-15.498a.827.827 0 011.17 0L52.69 40.74c.197.19.31.465.31.755z"/><path d="M43 27v-8.565l-6.382-5.216a.981.981 0 00-1.236 0L29 18.435V27m7-14V5m-3.5 3h7M41 58.943c0-3.85-3.348-6.126-4.565-6.825a.86.86 0 00-.87 0c-1.217.7-4.565 2.974-4.565 6.825v7.09c0 .534.41.967.914.967h8.172c.505 0 .914-.433.914-.968v-7.089zm-5-13.118l-4.87-6.244-.156-.232A2.863 2.863 0 1136 36.621a2.863 2.863 0 114.888 2.936L36 45.825z"/></g><path fill="#D0CFCE" d="M44 34V19.435l-7.294-5.216a1.248 1.248 0 00-1.412 0L28 19.435V34"/><path fill="#FFF" d="M53 41.495v24.508c0 .55-.4.997-.895.997h-32.21c-.494 0-.895-.446-.895-.997V41.495c0-.29.113-.565.31-.755l16.105-15.498a.827.827 0 011.17 0L52.69 40.74c.197.19.31.465.31.755z"/><path fill="#A57939" d="M41 58.943c0-3.85-3.348-6.126-4.565-6.825a.86.86 0 00-.87 0c-1.217.7-4.565 2.974-4.565 6.825v7.09c0 .534.41.967.914.967h8.172c.505 0 .914-.433.914-.968v-7.089z"/><path fill="#EA5A47" d="M36 45.825l-4.87-6.244-.156-.232A2.863 2.863 0 1136 36.621a2.863 2.863 0 114.888 2.936L36 45.825z"/><g fill="none" stroke="#000" stroke-linecap="round" stroke-width="2"><path stroke-linejoin="round" stroke-miterlimit="10" d="M53 41.495v24.508c0 .55-.4.997-.895.997h-32.21c-.494 0-.895-.446-.895-.997V41.495c0-.29.113-.565.31-.755l16.105-15.498a.827.827 0 011.17 0L52.69 40.74c.197.19.31.465.31.755z"/><path stroke-linejoin="round" stroke-miterlimit="10" d="M43 27v-8.565l-6.382-5.216a.981.981 0 00-1.236 0L29 18.435V27"/><path stroke-miterlimit="10" d="M36 13V5m-3.5 3h7M41 58.943c0-3.85-3.348-6.126-4.565-6.825a.86.86 0 00-.87 0c-1.217.7-4.565 2.974-4.565 6.825v7.09c0 .534.41.967.914.967h8.172c.505 0 .914-.433.914-.968v-7.089z"/><path stroke-linejoin="round" d="M36 45.825l-4.87-6.244-.156-.232A2.863 2.863 0 1136 36.621a2.863 2.863 0 114.888 2.936L36 45.825z"/></g></svg>
